X:1
T: Saint Brides
N:
C:
S: Play  3  times
A:
O:
R:
M:4/4
K:A
I:speed 200
%W: A1
% voice 1 (1 lines, 39 notes)
K:A
M:4/4
L:1/16
E4 |A4 e2 d2 c4 A4 |c4 e4 e4 f2 g2 |a4 g4 f4 e4 |d2 c2 B2 c2 d2 c2 B2 c2 |A4 e2 d2 c4 A4 |c4 e4 e4 f2 g2 |a4 g4 f6 e2 |e12 E4 |
%W: A2
% voice 1 (1 lines, 38 notes)
A4 e2 d2 c4 A4 |c4 e4 e4 f2 g2 |a4 g4 f4 e4 |d2 c2 B2 c2 d2 c2 B2 c2 |A4 e2 d2 c4 A4 |c4 e4 e4 f2 g2 |a4 g4 f6 e2 |e12 e4 |
%W: B1
% voice 1 (1 lines, 44 notes)
f2 e2 f2 g2 a2 g2 f2 e2 |f2 e2 d2 c2 B4 c2 d2 |e4 f2 e2 d2 c2 B2 A2 |G12 E4 |A4 c2 A2 F4 d2 B2 |G4 e2 c2 A4 a2 g2 |f2 e2 d2 c2 B6 A2 |A12 e4 |
%W: B2
% voice 1 (1 lines, 43 notes)
f2 e2 f2 g2 a2 g2 f2 e2 |f2 e2 d2 c2 B4 c2 d2 |e4 f2 e2 d2 c2 B2 A2 |G12 E4 |A4 c2 A2 F4 d2 B2 |G4 e2 c2 A4 a2 g2 |f2 e2 d2 c2 B6 A2 |A12 ||
